X:721
T:The Swallowtail
S:Colin Hume's website,  colinhume.com  - chords can also be printed below the stave.
Q:3/8=120
M:6/8
L:1/8
K:Edor
P:A
|: F | "Em"GEE BEE | "/"GEE BAG | "D"FDD ADD | "/"dcd AGF |\
"Em"GEE BEE | "/"GEE B2c | "D"dcd AGF | "Em"GEE E2 :|
P:B
|: z | "Em"Bcd e2f | "/"e2f edB | "Em"Bcd e2f | "Em"edB "D"d3 |\
"Em"Bcd e2f | "/"e2f edB | "D"dcd AGF | "Em"GEE E2 :|

